X:1
T:Title
%%score { ( 1 3 5 ) | ( 2 4 ) }
L:1/8
M:4/4
K:Eb
V:1 treble nm="Grand Piano"
V:3 treble 
V:5 treble 
V:2 bass 
V:4 bass 
V:1
 z4 z2 z z/[Q:1/4=94] [CE]/ | [CF]>[CE] [=B,D]>[CE] [Ec]3- [Ec]/[CE]/ | %2
 G>F =E>F [F_d]3- [Fd]/[_DFc]/ | [_DGc]>[DGB] [C_G=A]>[D=GB] [Ge]>_d c>=B | %4
 c->[Ac-] [Gc-]>[Fc-] [Ec]3 z/ [CE]/ | [CF]>[CE] [=B,D]>[CE] [Ec]3- [Ec]/[CE]/ | %6
 G>F =E>F [F_d]3- [Fd]/[_Dc]/ | [Dc]>[DB] [D=A]>[DB] [_Ad]>[Ad] [CAc]>[DAB] | %8
[M:7/8] e->[Ge-][Fe-]>[Ae-] [Ge]3 |[M:1/4] z z/ E/ |[M:4/4] [F,CF]>E D>E B>A G>A | %11
 c->[CEAc-] [CEAc-]>[EAc-] [A,c-]2 c>E | [F,CF]>[CE] [=B,D]>[CE] [_B,CEB]>[CEA] [CEG]>[CEA] | %13
 _d->[_DEGd-] [DEGd-]>[EGd-] [DEGd]2- [E,DEGd]>d | c>B [E=A]>[EB] [Ee]3- [Ee]/[Ec]/ | %15
 B>A G>A [F_d]2 [F=d]2 | [Af]>[Ae] [Ec]>[CEA] [B,EG]>[FG_d] [EGc]>[_DGB] | %17
[M:15/16] A->[EA-][FA]-[FA-]/[FA-]/[EA]-<[EA] z3/2 |] %18
V:2
 z4 z2 z z/ [A,,A,]/ | [A,,A,]>[A,,A,] [A,,A,]>[A,,A,] [A,,A,]3- [A,,A,]/[A,,A,]/ | %2
 [_D,A,_D]>[D,A,D] [D,A,D]>[D,A,D] [B,,B,]3- [B,,B,]/B,,/ | %3
 E,>E, E,>E, [E,B,]>[E,G,E] [E,G,E]>[E,G,E] | [A,,A,]6- [A,,A,] z/ [A,,A,]/ | %5
 [A,,A,]>[A,,A,] [A,,A,]>[A,,A,] [A,,A,]3- [A,,A,]/[A,,A,]/ | %6
 [_D,A,_D]>[D,A,D] [D,A,D]>[D,A,D] [B,,B,]3- [B,,B,]/[B,,F,]/ | %7
 [B,,F,]>[B,,F,] [B,,F,]>[B,,F,] [B,,B,]>B, B,>B, |[M:7/8] z z/ B,<A,C/ B,3 |[M:1/4] z z/ E,/ | %10
[M:4/4] z z/ [E,C]/ [D,=B,]>[E,C] [_B,CE]>[A,CE] [G,CE]>[A,CE] | [A,,A,]2 z z/ C/ A,,2 z z/ C/ | %12
 z z/ E,/ _D,>E, z z/ A,/ G,>A, | [B,,B,]2 z z/ _D/ B,,2 E,,>[E,G,E] | %14
 [E,G,E]>[E,G,E] [_D,G,]>[D,G,] [C,A,]3- [C,A,]/[A,,A,]/ | %15
 [A,C_G]>[A,CG] [A,C]>[A,C=G][K:bass] [_D,A,]2 [B,,B,]2 | [E,C]>[E,C] [E,A,]>E, E,>E, E,>E, | %17
[M:15/16] z3/2 C/_D-D/D/C-<C z3/2 |] %18
V:3
 x8 | x8 | x8 | x8 | E2 z2 z4 | x8 | x8 | x8 |[M:7/8] [EG]2 z z z z2 |[M:1/4] x2 |[M:4/4] x8 | %11
 [CEA]2 z2 [CEA]4 | x8 | [_DEG]2 z2 B,2 z2 | x8 | x8 | x8 |[M:15/16] [CE]3/2 z3/2 z3/2 z3 |] %18
V:4
 x8 | x8 | x8 | x8 | x8 | x8 | x8 | x8 |[M:7/8] E,-E,-E,- E,- E,3 |[M:1/4] x2 |[M:4/4] A,,8 | %11
 z2 [E,,E,]2 z2 E,,2 | A,,4 A,,4 | z2 [E,,E,]2 z4 | x8 | x4[K:bass] x4 | x8 | %17
[M:15/16] A,,3/2-A,,3/2- A,,3 z3/2 |] %18
V:5
 x8 | x8 | x8 | x8 | x8 | x8 | x8 | x8 |[M:7/8] x7 |[M:1/4] x2 |[M:4/4] x8 | z4 z2 E,2 | x8 | x8 | %14
 x8 | x8 | x8 |[M:15/16] x15/2 |] %18

